X:1
T: Mrs. Lumsden of Achindores
C:
R:Strathspey
Q: 128
K:Eb
M:4/4
L:1/16
|:d2|e4 B3G E3B GE3|CF3 F2G2 A2GF D2CB,|e4 B3G E3B G3E|C2F2 D2CB, E4 E2d2|
e4 B3G E3B GE3|CF3 F2G2 A2GF D2CB,|e4 B3G E3B G3E|C2F2 D2CB, E4 Bcd2|
ee3 e2g2 c3f d2B2|ee3 e2g2 Be3 G2E2|Ac3 GB3 CF3 DB,3|C2F2 D2CB, E4 E4|
ee3 e2g2 c3f d2B2|ee3 e2g2 Be3 GE3|Ac3 GB3 CF3 DB,3|C3F D2CB, E4 E2:|
